share/icons/Flat-Remix-Blue-Dark/mimetypes/scalable/application-database.svg

<svg xmlns="http://www.w3.org/2000/svg" xmlns:xlink="http://www.w3.org/1999/xlink" width="36pt" height="36pt" version="1.1" viewBox="0 0 36 36"> <defs> <clipPath id="clip1"> <path d="M 20 2 L 31 2 L 31 13 L 20 13 Z M 20 2"/> </clipPath> <clipPath id="clip2"> <path d="M 20.515625 2.625 L 30.328125 12.4375 L 22.023438 12.4375 C 21.292969 12.4375 20.515625 11.660156 20.515625 10.929688 Z M 20.515625 2.625"/> </clipPath> <image id="image6" width="36" height="36" xlink:href="data:image/png;base64,iVBORw0KGgoAAAANSUhEUgAAACQAAAAkCAYAAADhAJiYAAAABmJLR0QA/wD/AP+gvaeTAAAAmklEQVRYhe3T0QqCQBBG4aOtYEoUvf9Lildltl00C4tkbBeTIP+BAUEYP1YW1Pcqh53B9kbgaVPcwQF0tAmGSrMZ6AKcDQXw+AUVHEAtcAUaewYYgYmC3+cBCkAPnDJQMcoDVNnebgEqQnmAclTz4d0I3P4JStc9AjXvk4qLWQV53LLeEOl05gw4A3dgcPiuUkoppZRSSqk99gLWvSJpuDnlsAAAAABJRU5ErkJggg=="/> </defs> <g> <path style="fill:rgb(72.156%,9.019%,29.803%)" d="M 7.347656 3.152344 C 6.675781 3.152344 6.042969 3.785156 6.042969 4.457031 L 6.042969 31.847656 C 6.042969 32.480469 6.714844 33.152344 7.347656 33.152344 L 28.21875 33.152344 C 28.851562 33.152344 29.523438 32.480469 29.523438 31.847656 L 29.523438 11.632812 L 21.042969 3.152344 Z M 7.347656 3.152344"/> <g clip-path="url(#clip1)"> <g clip-path="url(#clip2)"> <use xlink:href="#image6"/> </g> </g> <path style="fill:rgb(80.392%,36.078%,50.588%)" d="M 21.042969 3.152344 L 29.523438 11.632812 L 22.347656 11.632812 C 21.714844 11.632812 21.042969 10.960938 21.042969 10.328125 Z M 21.042969 3.152344"/> <path style="fill:rgb(100.000%,100.000%,100.000%)" d="M 18 12.78125 C 15.117188 12.78125 12.78125 13.511719 12.78125 14.414062 L 12.78125 15.71875 C 12.78125 16.617188 15.117188 17.347656 18 17.347656 C 20.882812 17.347656 23.21875 16.617188 23.21875 15.71875 L 23.21875 14.414062 C 23.21875 13.511719 20.882812 12.78125 18 12.78125 Z M 18 12.78125"/> <path style="fill:rgb(100.000%,100.000%,100.000%)" d="M 17.984375 18 C 15.648438 18 13.679688 17.519531 13.011719 16.859375 C 12.859375 17.011719 12.78125 17.175781 12.78125 17.347656 L 12.78125 18.652344 C 12.78125 19.550781 15.117188 20.28125 18 20.28125 C 20.882812 20.28125 23.21875 19.550781 23.21875 18.652344 L 23.21875 17.347656 C 23.21875 17.175781 23.125 17.011719 22.96875 16.859375 C 22.304688 17.519531 20.320312 18 17.984375 18 Z M 17.984375 18"/> <path style="fill:rgb(100.000%,100.000%,100.000%)" d="M 17.984375 20.933594 C 15.648438 20.933594 13.679688 20.453125 13.011719 19.792969 C 12.859375 19.949219 12.78125 20.113281 12.78125 20.28125 L 12.78125 21.585938 C 12.78125 22.488281 15.117188 23.21875 18 23.21875 C 20.882812 23.21875 23.21875 22.488281 23.21875 21.585938 L 23.21875 20.28125 C 23.21875 20.113281 23.125 19.949219 22.96875 19.792969 C 22.304688 20.453125 20.320312 20.933594 17.984375 20.933594 Z M 17.984375 20.933594"/> </g> </svg>

<svg width="36pt" height="36pt" version="1.1" viewBox="0 0 36 36" xmlns="http://www.w3.org/2000/svg"><defs><filter id="a" x="-.192" y="-.192" width="1.384" height="1.384" color-interpolation-filters="sRGB"><feGaussianBlur stdDeviation="0.67843748"/></filter></defs><path d="m7.3477 3.9022c-0.67188 0-1.3047 0.63281-1.3047 1.3047v27.391c0 0.63281 0.67188 1.3047 1.3047 1.3047h20.871c0.63281 0 1.3047-0.67188 1.3047-1.3047v-20.215l-8.4805-8.4805z" opacity=".3"/><path d="m7.3477 3.1523c-0.67188 0-1.3047 0.63281-1.3047 1.3047v27.391c0 0.63281 0.67188 1.3047 1.3047 1.3047h20.871c0.63281 0 1.3047-0.67188 1.3047-1.3047v-20.215l-8.4805-8.4805z" fill="#b7164b"/><path d="m20.668 3.5272 8.4805 8.4805h-7.1758c-0.63281 0-1.3047-0.67187-1.3047-1.3047z" filter="url(#a)" opacity=".2"/><path d="m21.043 3.1523 8.4805 8.4805h-7.1758c-0.63281 0-1.3047-0.67187-1.3047-1.3047z" fill="#cc5b80"/><path d="m18 12.781c-2.8828 0-5.2188 0.73047-5.2188 1.6328v1.3047c0 0.89844 2.3359 1.6289 5.2188 1.6289s5.2188-0.73047 5.2188-1.6289v-1.3047c0-0.90234-2.3359-1.6328-5.2188-1.6328z" fill="#fff"/><path d="m17.984 18c-2.3359 0-4.3047-0.48047-4.9727-1.1406-0.15234 0.15234-0.23047 0.31641-0.23047 0.48828v1.3047c0 0.89844 2.3359 1.6289 5.2188 1.6289s5.2188-0.73047 5.2188-1.6289v-1.3047c0-0.17188-0.09375-0.33594-0.25-0.48828-0.66406 0.66016-2.6484 1.1406-4.9844 1.1406z" fill="#fff"/><path d="m17.984 20.934c-2.3359 0-4.3047-0.48047-4.9727-1.1406-0.15234 0.15625-0.23047 0.32031-0.23047 0.48828v1.3047c0 0.90234 2.3359 1.6328 5.2188 1.6328s5.2188-0.73047 5.2188-1.6328v-1.3047c0-0.16797-0.09375-0.33203-0.25-0.48828-0.66406 0.66016-2.6484 1.1406-4.9844 1.1406z" fill="#fff"/></svg>
